img/info/03/01.svg

<svg width="92" height="92" viewBox="0 0 92 92" fill="none" xmlns="http://www.w3.org/2000/svg">
<rect x="1" y="1" width="90" height="90" rx="10" fill="url(#paint0_linear_396_88512)" stroke="#343434" stroke-width="2"/>
<path d="M65.2248 49.4043H55.625V52.2892V61.6351C55.625 65.3284 55.625 71.0923 55.625 71.0923H71.3337V55.9107M65.2248 49.4043V55.9107H71.3337M65.2248 49.4043L71.3337 55.9107" stroke="white" stroke-width="1.5" stroke-linecap="round" stroke-linejoin="round"/>
<ellipse cx="34.2436" cy="62.8501" rx="3.92718" ry="3.90383" stroke="white" stroke-width="1.5" stroke-linecap="round" stroke-linejoin="round"/>
<ellipse cx="42.0991" cy="42.898" rx="3.92718" ry="3.90383" stroke="white" stroke-width="1.5" stroke-linecap="round" stroke-linejoin="round"/>
<ellipse cx="53.4408" cy="24.6792" rx="3.92718" ry="3.90383" stroke="white" stroke-width="1.5" stroke-linecap="round" stroke-linejoin="round"/>
<ellipse cx="23.7709" cy="23.812" rx="3.92718" ry="3.90383" stroke="white" stroke-width="1.5" stroke-linecap="round" stroke-linejoin="round"/>
<path d="M32.9355 24.2461L38.2562 24.2461L40.0298 24.2461L45.1534 24.2461" stroke="white" stroke-width="1.5" stroke-linecap="round" stroke-linejoin="round"/>
<path d="M61.2233 23.6221H62.3927C67.7839 23.6221 72.1542 27.9924 72.1542 33.3836V33.3836C72.1542 38.7747 67.7839 43.1451 62.3927 43.1451H50.0957" stroke="white" stroke-width="1.5" stroke-linecap="round" stroke-linejoin="round"/>
<path d="M25.9527 62.4168H21.7722C20.7072 62.4168 19.8438 61.5534 19.8438 60.4883V54.0348C19.8438 47.6443 25.0242 42.4639 31.4147 42.4639H33.8552" stroke="white" stroke-width="1.5" stroke-linecap="round" stroke-linejoin="round"/>
<path d="M42.1016 62.8496H52.1377" stroke="white" stroke-width="1.5" stroke-linecap="round" stroke-linejoin="round"/>
<path d="M59.5547 62.5117H63.9182" stroke="white" stroke-width="1.5" stroke-linecap="round" stroke-linejoin="round"/>
<ellipse cx="59.5538" cy="66.0479" rx="0.50299" ry="0.5" fill="white"/>
<defs>
<linearGradient id="paint0_linear_396_88512" x1="102.574" y1="103.026" x2="-17.2231" y2="1.35878" gradientUnits="userSpaceOnUse">
<stop offset="0.10199" stop-color="#333339"/>
<stop offset="0.985" stop-color="#19181A"/>
</linearGradient>
</defs>
</svg>

<svg xmlns="http://www.w3.org/2000/svg" width="92" height="92" fill="none"><rect width="90" height="90" x="1" y="1" fill="url(#a)" stroke="#343434" stroke-width="2" rx="10"/><path stroke="#fff" stroke-linecap="round" stroke-linejoin="round" stroke-width="1.5" d="M65.225 49.404h-9.6V71.092h15.709V55.911m-6.11-6.507v6.507h6.11m-6.11-6.507 6.11 6.507"/><ellipse cx="34.244" cy="62.85" stroke="#fff" stroke-linecap="round" stroke-linejoin="round" stroke-width="1.5" rx="3.927" ry="3.904"/><ellipse cx="42.099" cy="42.898" stroke="#fff" stroke-linecap="round" stroke-linejoin="round" stroke-width="1.5" rx="3.927" ry="3.904"/><ellipse cx="53.441" cy="24.679" stroke="#fff" stroke-linecap="round" stroke-linejoin="round" stroke-width="1.5" rx="3.927" ry="3.904"/><ellipse cx="23.771" cy="23.812" stroke="#fff" stroke-linecap="round" stroke-linejoin="round" stroke-width="1.5" rx="3.927" ry="3.904"/><path stroke="#fff" stroke-linecap="round" stroke-linejoin="round" stroke-width="1.5" d="M32.935 24.246h12.218M61.223 23.622h1.17c5.39 0 9.761 4.37 9.761 9.762v0c0 5.39-4.37 9.761-9.761 9.761H50.096M25.953 62.417h-4.18a1.928 1.928 0 0 1-1.93-1.929v-6.453c0-6.39 5.181-11.571 11.572-11.571h2.44M42.102 62.85h10.036M59.555 62.512h4.363"/><ellipse cx="59.554" cy="66.048" fill="#fff" rx=".503" ry=".5"/><defs><linearGradient id="a" x1="102.574" x2="-17.223" y1="103.026" y2="1.359" gradientUnits="userSpaceOnUse"><stop offset=".102" stop-color="#333339"/><stop offset=".985" stop-color="#19181A"/></linearGradient></defs></svg>
